svg/aws-ec2-c6gn.svg

<?xml version="1.0" encoding="UTF-8"?>
<svg xmlns="http://www.w3.org/2000/svg" xmlns:xlink="http://www.w3.org/1999/xlink" width="32" height="32" viewBox="0 0 32 32">
<path fill-rule="evenodd" fill="rgb(83.137255%, 35.686275%, 2.745098%)" fill-opacity="1" d="M 6 26 L 26 26 L 26 6 L 6 6 Z M 27.332031 8.667969 L 27.332031 11.332031 L 30.667969 11.332031 L 30.667969 12.667969 L 27.332031 12.667969 L 27.332031 15.332031 L 30.667969 15.332031 L 30.667969 16.667969 L 27.332031 16.667969 L 27.332031 19.332031 L 30.667969 19.332031 L 30.667969 20.667969 L 27.332031 20.667969 L 27.332031 23.332031 L 30.667969 23.332031 L 30.667969 24.667969 L 27.332031 24.667969 L 27.332031 26.667969 C 27.332031 27.035156 27.035156 27.332031 26.667969 27.332031 L 24.667969 27.332031 L 24.667969 30.667969 L 23.332031 30.667969 L 23.332031 27.332031 L 20.667969 27.332031 L 20.667969 30.667969 L 19.332031 30.667969 L 19.332031 27.332031 L 16.667969 27.332031 L 16.667969 30.667969 L 15.332031 30.667969 L 15.332031 27.332031 L 12.667969 27.332031 L 12.667969 30.667969 L 11.332031 30.667969 L 11.332031 27.332031 L 8.667969 27.332031 L 8.667969 30.667969 L 7.332031 30.667969 L 7.332031 27.332031 L 5.332031 27.332031 C 4.964844 27.332031 4.667969 27.035156 4.667969 26.667969 L 4.667969 24.667969 L 1.332031 24.667969 L 1.332031 23.332031 L 4.667969 23.332031 L 4.667969 20.667969 L 1.332031 20.667969 L 1.332031 19.332031 L 4.667969 19.332031 L 4.667969 16.667969 L 1.332031 16.667969 L 1.332031 15.332031 L 4.667969 15.332031 L 4.667969 12.667969 L 1.332031 12.667969 L 1.332031 11.332031 L 4.667969 11.332031 L 4.667969 8.667969 L 1.332031 8.667969 L 1.332031 7.332031 L 4.667969 7.332031 L 4.667969 5.332031 C 4.667969 4.964844 4.964844 4.667969 5.332031 4.667969 L 7.332031 4.667969 L 7.332031 1.332031 L 8.667969 1.332031 L 8.667969 4.667969 L 11.332031 4.667969 L 11.332031 1.332031 L 12.667969 1.332031 L 12.667969 4.667969 L 15.332031 4.667969 L 15.332031 1.332031 L 16.667969 1.332031 L 16.667969 4.667969 L 19.332031 4.667969 L 19.332031 1.332031 L 20.667969 1.332031 L 20.667969 4.667969 L 23.332031 4.667969 L 23.332031 1.332031 L 24.667969 1.332031 L 24.667969 4.667969 L 26.667969 4.667969 C 27.035156 4.667969 27.332031 4.964844 27.332031 5.332031 L 27.332031 7.332031 L 30.667969 7.332031 L 30.667969 8.667969 Z M 21.933594 15.390625 C 22.300781 15.15625 22.660156 15.039062 23.011719 15.039062 C 23.246094 15.039062 23.417969 15.097656 23.523438 15.21875 C 23.628906 15.335938 23.683594 15.527344 23.683594 15.789062 L 23.683594 18.484375 L 24.628906 18.484375 L 24.628906 15.492188 C 24.628906 15.105469 24.527344 14.808594 24.324219 14.601562 C 24.121094 14.394531 23.824219 14.292969 23.4375 14.292969 C 22.890625 14.292969 22.371094 14.484375 21.867188 14.863281 L 21.773438 14.414062 L 20.988281 14.414062 L 20.988281 18.484375 L 21.933594 18.484375 Z M 17.21875 16.332031 C 17.21875 17.230469 17.539062 17.675781 18.171875 17.675781 C 18.488281 17.675781 18.785156 17.574219 19.070312 17.367188 L 19.070312 15.316406 C 18.808594 15.132812 18.5 15.03125 18.179688 15.03125 C 17.855469 15.03125 17.613281 15.136719 17.457031 15.347656 C 17.296875 15.5625 17.21875 15.890625 17.21875 16.332031 M 16.703125 17.847656 C 16.40625 17.480469 16.261719 16.984375 16.261719 16.367188 C 16.261719 15.960938 16.328125 15.601562 16.460938 15.289062 C 16.59375 14.976562 16.785156 14.734375 17.035156 14.558594 C 17.296875 14.378906 17.609375 14.285156 17.925781 14.292969 C 18.375 14.289062 18.8125 14.464844 19.132812 14.78125 L 19.210938 14.414062 L 20.011719 14.414062 L 20.011719 18.207031 C 20.011719 18.851562 19.835938 19.347656 19.484375 19.703125 C 19.132812 20.054688 18.636719 20.230469 17.988281 20.230469 C 17.492188 20.230469 17.027344 20.121094 16.589844 19.902344 L 16.589844 19.230469 C 17.085938 19.394531 17.53125 19.476562 17.925781 19.476562 C 18.324219 19.476562 18.613281 19.386719 18.796875 19.203125 C 18.976562 19.015625 19.070312 18.71875 19.070312 18.300781 L 19.070312 17.957031 C 18.722656 18.257812 18.328125 18.40625 17.890625 18.40625 C 17.394531 18.40625 17 18.21875 16.703125 17.847656 M 12.714844 16.140625 C 12.753906 17.277344 13.121094 17.84375 13.824219 17.84375 C 14.113281 17.84375 14.335938 17.757812 14.496094 17.582031 C 14.660156 17.40625 14.738281 17.160156 14.738281 16.84375 C 14.738281 16.523438 14.65625 16.28125 14.488281 16.113281 C 14.324219 15.945312 14.082031 15.863281 13.761719 15.863281 C 13.417969 15.863281 13.070312 15.953125 12.714844 16.140625 M 12.257812 17.925781 C 11.917969 17.472656 11.75 16.800781 11.75 15.917969 C 11.75 14.9375 11.949219 14.171875 12.351562 13.628906 C 12.753906 13.085938 13.320312 12.8125 14.050781 12.8125 C 14.28125 12.8125 14.511719 12.839844 14.742188 12.890625 C 14.976562 12.941406 15.175781 13.007812 15.339844 13.09375 L 15.339844 13.789062 C 15.15625 13.71875 14.964844 13.667969 14.773438 13.632812 C 14.582031 13.59375 14.382812 13.574219 14.1875 13.574219 C 13.707031 13.574219 13.347656 13.734375 13.113281 14.054688 C 12.875 14.371094 12.742188 14.867188 12.714844 15.535156 C 13.136719 15.261719 13.585938 15.125 14.0625 15.125 C 14.558594 15.125 14.957031 15.273438 15.257812 15.578125 C 15.558594 15.878906 15.707031 16.277344 15.707031 16.78125 C 15.707031 17.128906 15.628906 17.445312 15.472656 17.722656 C 15.3125 17.996094 15.074219 18.222656 14.792969 18.371094 C 14.496094 18.527344 14.152344 18.605469 13.757812 18.605469 C 13.09375 18.605469 12.59375 18.378906 12.257812 17.925781 M 7.816406 17.878906 C 7.367188 17.402344 7.140625 16.714844 7.140625 15.796875 C 7.140625 14.851562 7.375 14.121094 7.839844 13.613281 C 8.308594 13.105469 8.976562 12.851562 9.851562 12.851562 C 10.332031 12.851562 10.773438 12.921875 11.179688 13.066406 L 11.179688 13.867188 C 10.648438 13.757812 10.230469 13.699219 9.929688 13.699219 C 9.324219 13.699219 8.871094 13.855469 8.574219 14.171875 C 8.28125 14.484375 8.132812 14.972656 8.132812 15.628906 L 8.132812 15.816406 C 8.132812 16.46875 8.277344 16.953125 8.570312 17.265625 C 8.863281 17.574219 9.3125 17.730469 9.914062 17.730469 C 10.253906 17.730469 10.703125 17.664062 11.261719 17.53125 L 11.261719 18.328125 C 10.800781 18.503906 10.3125 18.589844 9.820312 18.578125 C 8.933594 18.578125 8.265625 18.34375 7.816406 17.878906 M 7.816406 17.878906 "/>
</svg>

<svg role="img" viewBox="0 0 32 32" xmlns="http://www.w3.org/2000/svg"><path d="M6 26h20V6H6ZM27.332 8.668v2.664h3.336v1.336h-3.336v2.664h3.336v1.336h-3.336v2.664h3.336v1.336h-3.336v2.664h3.336v1.336h-3.336v2a.664.664 0 0 1-.664.664h-2v3.336h-1.336v-3.336h-2.664v3.336h-1.336v-3.336h-2.664v3.336h-1.336v-3.336h-2.664v3.336h-1.336v-3.336H8.668v3.336H7.332v-3.336h-2a.664.664 0 0 1-.664-.664v-2H1.332v-1.336h3.336v-2.664H1.332v-1.336h3.336v-2.664H1.332v-1.336h3.336v-2.664H1.332v-1.336h3.336V8.668H1.332V7.332h3.336v-2c0-.367.297-.664.664-.664h2V1.332h1.336v3.336h2.664V1.332h1.336v3.336h2.664V1.332h1.336v3.336h2.664V1.332h1.336v3.336h2.664V1.332h1.336v3.336h2c.367 0 .664.297.664.664v2h3.336v1.336Zm-5.398 6.723q.55-.352 1.078-.352.352 0 .511.18.16.176.16.57v2.695h.946v-2.992q0-.58-.305-.89t-.887-.309c-.546 0-1.066.191-1.57.57l-.094-.449h-.785v4.07h.946Zm-4.715.941q.002 1.346.953 1.344.472 0 .898-.309v-2.05a1.54 1.54 0 0 0-.89-.286q-.488 0-.723.317-.239.322-.238.984m-.516 1.516c-.297-.368-.441-.864-.441-1.48q0-.61.199-1.079.2-.468.574-.73a1.5 1.5 0 0 1 .89-.266 1.7 1.7 0 0 1 1.208.488l.078-.367h.8v3.793c0 .645-.175 1.14-.527 1.496q-.524.527-1.496.527-.742 0-1.398-.328v-.672q.744.247 1.336.247.596.001.87-.274c.18-.187.274-.484.274-.902v-.344q-.522.45-1.18.45-.742-.001-1.187-.56m-3.988-1.707c.039 1.136.406 1.703 1.11 1.703q.43.001.671-.262.244-.264.242-.738.001-.48-.25-.73-.246-.252-.726-.25-.515-.002-1.047.277m-.457 1.785c-.34-.453-.508-1.125-.508-2.008q0-1.472.602-2.29.603-.814 1.699-.816.345.001.691.079.352.075.598.203v.695a3 3 0 0 0-.567-.156 3 3 0 0 0-.585-.059q-.722 0-1.075.48-.357.48-.398 1.481.632-.41 1.348-.41.744 0 1.195.453.45.451.449 1.203 0 .526-.234.942a1.7 1.7 0 0 1-.68.648q-.444.234-1.035.234-.996 0-1.5-.68m-4.442-.047c-.449-.473-.675-1.164-.675-2.082q0-1.418.699-2.18c.469-.508 1.137-.765 2.012-.765q.719.001 1.328.218v.801q-.799-.169-1.25-.168-.91 0-1.356.469-.44.473-.441 1.457v.191q-.001.978.437 1.446.44.468 1.344.468.51 0 1.348-.199v.797q-.633.251-1.442.25-1.329 0-2.004-.703m0 0" fill="rgb(83.137256%, 35.686275%, 2.745098%)" fill-rule="evenodd"/></svg>
